src/4-icons/push-button.svg

<svg width="260" height="260" viewBox="0 0 260 260" fill="none" xmlns="http://www.w3.org/2000/svg">
<path fill-rule="evenodd" clip-rule="evenodd" d="M130.319 80.3517C143.271 72.9429 152 58.9908 152 43C152 19.2518 132.748 0 109 0C85.2518 0 66.0001 19.2518 66.0001 43C66.0001 59.1266 74.8776 73.1797 88.0122 80.539V123.64H72.4592C68.5038 123.64 64.9202 125.971 63.3172 129.587L40.9503 180.044C39.7178 182.824 39.8175 186.014 41.2212 188.712L75.5117 254.616C77.2332 257.924 80.6341 260 84.3638 260H184.707C188.243 260 191.476 259.546 194.408 258.456C196.614 257.638 198.638 256.456 200.331 254.941C202.899 252.669 204.682 249.82 205.952 246.821C207.221 243.792 208.067 240.52 208.792 236.946C209.789 231.947 210.998 224.343 212.297 215.375C214.231 201.954 216.316 185.534 217.978 170.932C218.794 163.631 219.519 156.784 220.064 150.967C220.578 145.151 220.941 140.395 221 137.092C220.986 136.834 220.979 136.421 220.972 136.022C220.964 135.576 220.956 135.147 220.94 134.971V134.967C220.849 132.211 220.245 129.605 219.127 127.302C217.314 123.515 214.263 120.728 210.908 119.031C207.555 117.305 203.898 116.578 200.241 116.547C196.797 116.547 193.351 117.275 190.149 118.728C189.847 117.456 189.424 116.214 188.849 115.093C187.007 111.246 183.924 108.428 180.54 106.671C177.156 104.913 173.408 104.095 169.722 104.095C166.368 104.095 162.983 104.823 159.841 106.246C159.539 105.094 159.146 103.944 158.632 102.913C156.759 99.0658 153.677 96.2185 150.293 94.4611C146.878 92.6742 143.132 91.8564 139.384 91.8564C136.333 91.8564 133.22 92.4327 130.319 93.6138V80.3517ZM130.296 62.6853C130.168 59.9394 129.52 57.3567 128.415 55.0875C126.542 51.2402 123.46 48.3929 120.074 46.6047C116.66 44.8166 112.913 44 109.166 44C104.21 44 99.1336 45.4544 94.9929 48.7266C92.9379 50.3633 91.1555 52.5136 89.9162 55.0591C88.7627 57.4282 88.1071 60.1632 88.0218 63.0229C83.052 57.8174 80.0001 50.7651 80.0001 43C80.0001 26.9837 92.9838 14 109 14C125.016 14 138 26.9837 138 43C138 50.5985 135.078 57.5145 130.296 62.6853ZM208.882 136.815V135.966L208.881 135.965V135.874C208.881 134.45 208.61 133.481 208.247 132.693C207.854 131.906 207.341 131.27 206.616 130.694C205.227 129.543 202.81 128.756 200.241 128.756C198.247 128.725 196.222 129.209 194.651 129.997C193.08 130.785 192.022 131.815 191.418 132.966C190.995 133.753 190.753 134.603 190.753 135.844C190.753 138.153 188.881 140.025 186.572 140.025H184.71C181.372 140.025 178.666 137.32 178.666 133.982V123.726C178.666 122.301 178.395 121.302 178.002 120.454C177.609 119.636 177.035 118.939 176.28 118.333C174.769 117.121 172.322 116.304 169.723 116.304C167.788 116.304 165.825 116.758 164.344 117.545C162.863 118.332 161.836 119.332 161.231 120.544C160.809 121.362 160.536 122.362 160.536 123.725V127.741C160.536 131.078 157.83 133.783 154.493 133.783C151.155 133.783 148.449 131.077 148.449 127.739V111.607C148.449 110.183 148.176 109.153 147.754 108.305C147.361 107.456 146.787 106.759 146.001 106.124C144.46 104.852 141.982 104.034 139.383 104.034C137.448 104.004 135.545 104.488 134.095 105.246C132.615 106.034 131.617 107.003 131.013 108.275C130.59 109.124 130.318 110.153 130.318 111.577V120.685C130.318 124.022 127.612 126.725 124.274 126.725C120.936 126.725 118.231 124.02 118.231 120.682V63.7194C118.231 62.2946 117.959 61.265 117.535 60.4165C117.142 59.5692 116.568 58.8709 115.783 58.2354C114.242 56.9621 111.763 56.1443 109.166 56.1443C107.231 56.1147 105.328 56.5988 103.877 57.3562C102.397 58.1431 101.4 59.1135 100.796 60.3857C100.373 61.2342 100.1 62.265 100.1 63.6887V172.202C100.1 175.539 97.3946 178.197 94.0569 178.197C90.7192 178.197 88.0134 175.493 88.0134 172.155V135.783H77.0641C75.0864 135.783 73.2946 136.949 72.4931 138.757L53.3923 181.845C52.7761 183.235 52.8259 184.83 53.5277 186.179L84.226 245.185C85.0868 246.839 86.7632 247.877 88.6281 247.877H184.709C187.519 247.877 189.394 247.453 190.632 246.908C191.84 246.333 192.596 245.727 193.442 244.575C193.986 243.818 194.53 242.787 195.044 241.455C195.738 239.668 196.342 237.365 196.886 234.578C198.277 227.701 200.271 214.28 202.235 199.526C204.198 184.742 206.132 168.564 207.401 155.87C208.249 147.449 208.792 140.48 208.882 136.815Z" fill="black"/>
</svg>

<svg width="260" height="260" viewBox="0 0 260 260" fill="none" xmlns="http://www.w3.org/2000/svg"><path fill-rule="evenodd" clip-rule="evenodd" d="M130.319 80.352C143.271 72.942 152 58.99 152 43c0-23.748-19.252-43-43-43S66 19.252 66 43c0 16.127 8.878 30.18 22.012 37.539v43.101H72.46a10 10 0 0 0-9.142 5.947L40.95 180.044a10 10 0 0 0 .271 8.668l34.29 65.904A9.972 9.972 0 0 0 84.365 260h100.343c3.536 0 6.769-.454 9.701-1.544 2.206-.818 4.23-2 5.923-3.515 2.568-2.272 4.351-5.121 5.621-8.12 1.269-3.029 2.115-6.301 2.84-9.875.997-4.999 2.206-12.603 3.505-21.571 1.934-13.421 4.019-29.841 5.681-44.443.816-7.301 1.541-14.148 2.086-19.965.514-5.816.877-10.572.936-13.875-.014-.258-.021-.671-.028-1.07a21.893 21.893 0 0 0-.032-1.051v-.004c-.091-2.756-.695-5.362-1.813-7.665-1.813-3.787-4.864-6.574-8.219-8.271-3.353-1.726-7.01-2.453-10.667-2.484-3.444 0-6.89.728-10.092 2.181-.302-1.272-.725-2.514-1.3-3.635-1.842-3.847-4.925-6.665-8.309-8.422-3.384-1.758-7.132-2.576-10.818-2.576-3.354 0-6.739.728-9.881 2.151-.302-1.152-.695-2.302-1.209-3.333-1.873-3.847-4.955-6.694-8.339-8.452-3.415-1.787-7.161-2.605-10.909-2.605-3.051 0-6.164.577-9.065 1.758V80.352Zm-.023-17.667c-.128-2.746-.776-5.328-1.881-7.598-1.873-3.847-4.955-6.694-8.341-8.482C116.66 44.817 112.913 44 109.166 44c-4.956 0-10.032 1.454-14.173 4.727a18.444 18.444 0 0 0-5.077 6.332c-1.153 2.37-1.809 5.104-1.894 7.964A28.902 28.902 0 0 1 80 43c0-16.016 12.984-29 29-29s29 12.984 29 29a28.897 28.897 0 0 1-7.704 19.685Zm78.586 74.13v-.849l-.001-.001v-.091c0-1.424-.271-2.393-.634-3.181a5.752 5.752 0 0 0-1.631-1.999c-1.389-1.151-3.806-1.938-6.375-1.938-1.994-.031-4.019.453-5.59 1.241-1.571.788-2.629 1.818-3.233 2.969-.423.787-.665 1.637-.665 2.878a4.181 4.181 0 0 1-4.181 4.181h-1.862a6.043 6.043 0 0 1-6.044-6.043v-10.256c0-1.425-.271-2.424-.664-3.272-.393-.818-.967-1.515-1.722-2.121-1.511-1.212-3.958-2.029-6.557-2.029-1.935 0-3.898.454-5.379 1.241-1.481.787-2.508 1.787-3.113 2.999-.422.818-.695 1.818-.695 3.181v4.016a6.044 6.044 0 0 1-12.087-.002v-16.132c0-1.424-.273-2.454-.695-3.302-.393-.849-.967-1.546-1.753-2.181-1.541-1.272-4.019-2.09-6.618-2.09-1.935-.03-3.838.454-5.288 1.212-1.48.788-2.478 1.757-3.082 3.029-.423.849-.695 1.878-.695 3.302v9.108a6.041 6.041 0 0 1-6.044 6.04 6.042 6.042 0 0 1-6.043-6.043V63.719c0-1.424-.272-2.454-.696-3.303-.393-.847-.967-1.545-1.752-2.18-1.541-1.274-4.02-2.092-6.617-2.092-1.935-.03-3.838.455-5.289 1.212-1.48.787-2.477 1.758-3.081 3.03-.423.848-.696 1.879-.696 3.303v108.513c0 3.337-2.705 5.995-6.043 5.995a6.042 6.042 0 0 1-6.044-6.042v-36.372H77.064a5 5 0 0 0-4.57 2.974l-19.102 43.088a5 5 0 0 0 .136 4.334l30.698 59.006a4.948 4.948 0 0 0 4.402 2.692h96.081c2.81 0 4.685-.424 5.923-.969 1.208-.575 1.964-1.181 2.81-2.333.544-.757 1.088-1.788 1.602-3.12.694-1.787 1.298-4.09 1.842-6.877 1.391-6.877 3.385-20.298 5.349-35.052 1.963-14.784 3.897-30.962 5.166-43.656.848-8.421 1.391-15.39 1.481-19.055Z" fill="#000"/></svg>
